src/assets/bold/lm-pages-vertical-bold.svg

<svg width="24" height="24" viewBox="0 0 24 24" fill="none" xmlns="http://www.w3.org/2000/svg" fill="currentColor">
<path d="M5.25 8.0625V2.25H3.75V8.0625C3.75 9.71935 5.09315 11.0625 6.75 11.0625H17.25C18.9069 11.0625 20.25 9.71935 20.25 8.0625V2.25H18.75V8.0625C18.75 8.89093 18.0784 9.5625 17.25 9.5625H6.75C5.92157 9.5625 5.25 8.89093 5.25 8.0625Z" fill="black"/>
<path d="M5.25 15.9375V21.75H3.75V15.9375C3.75 14.2806 5.09315 12.9375 6.75 12.9375H17.25C18.9069 12.9375 20.25 14.2806 20.25 15.9375V21.75H18.75V15.9375C18.75 15.1091 18.0784 14.4375 17.25 14.4375H6.75C5.92157 14.4375 5.25 15.1091 5.25 15.9375Z" fill="black"/>
<path d="M8.25 2.25H15.75V2.625C15.75 3.03921 15.4142 3.375 15 3.375H9C8.58579 3.375 8.25 3.03921 8.25 2.625V2.25Z" fill="black"/>
<path d="M8.25 21.75H15.75V21.375C15.75 20.9608 15.4142 20.625 15 20.625H9C8.58579 20.625 8.25 20.9608 8.25 21.375V21.75Z" fill="black"/>
<path d="M8.25 6.1875C8.25 5.87684 8.50184 5.625 8.8125 5.625H12.1875C12.4982 5.625 12.75 5.87684 12.75 6.1875C12.75 6.49816 12.4982 6.75 12.1875 6.75H8.8125C8.50184 6.75 8.25 6.49816 8.25 6.1875Z" fill="black"/>
<path d="M15.1875 18.375C15.4982 18.375 15.75 18.1232 15.75 17.8125C15.75 17.5018 15.4982 17.25 15.1875 17.25H8.8125C8.50184 17.25 8.25 17.5018 8.25 17.8125C8.25 18.1232 8.50184 18.375 8.8125 18.375H15.1875Z" fill="black"/>
</svg>

<svg xmlns="http://www.w3.org/2000/svg" width="24" height="24" fill="currentColor" viewBox="0 0 24 24">
  <path d="M5.25 8.063V2.25h-1.5v5.813a3 3 0 0 0 3 3h10.5a3 3 0 0 0 3-3V2.25h-1.5v5.813a1.5 1.5 0 0 1-1.5 1.5H6.75a1.5 1.5 0 0 1-1.5-1.5Zm0 7.875v5.812h-1.5v-5.813a3 3 0 0 1 3-3h10.5a3 3 0 0 1 3 3v5.813h-1.5v-5.813a1.5 1.5 0 0 0-1.5-1.5H6.75a1.5 1.5 0 0 0-1.5 1.5Z"/>
  <path d="M8.25 2.25h7.5v.375a.75.75 0 0 1-.75.75H9a.75.75 0 0 1-.75-.75V2.25Zm0 19.5h7.5v-.375a.75.75 0 0 0-.75-.75H9a.75.75 0 0 0-.75.75v.375Zm0-15.562c0-.311.252-.563.563-.563h3.374a.562.562 0 1 1 0 1.125H8.813a.563.563 0 0 1-.563-.563Zm6.938 12.187a.562.562 0 1 0 0-1.125H8.811a.562.562 0 1 0 0 1.125h6.376Z"/>
</svg>
